X: 4050
T: Blaydon Flats
R: reel
M: 4/4
K: Dmajor
|:A,2|D2FD CDB,D|A,DGB AGFE|DAFA DAFA|gfed dcBA|
dzdf ecac|Bc (3dcB ADFD|G2BG FAdB|AFGE D2:|
|:g2|fdaf eAcA|B2dB ADFA|BGBd Adfa|gfed dcBA|
dzdf ecac|Bc (3dcB ADFD|G2BG FAdB|AFGE D2:|

